svg/Mapbox-maki/rail-18.svg

<?xml version="1.0" encoding="UTF-8" standalone="no"?>
<!-- Created with Inkscape (http://www.inkscape.org/) -->

<svg
   xmlns:dc="http://purl.org/dc/elements/1.1/"
   xmlns:cc="http://creativecommons.org/ns#"
   xmlns:rdf="http://www.w3.org/1999/02/22-rdf-syntax-ns#"
   xmlns:svg="http://www.w3.org/2000/svg"
   xmlns="http://www.w3.org/2000/svg"
   xmlns:sodipodi="http://sodipodi.sourceforge.net/DTD/sodipodi-0.dtd"
   xmlns:inkscape="http://www.inkscape.org/namespaces/inkscape"
   width="18"
   height="18"
   id="svg4619"
   version="1.1"
   inkscape:version="0.48.2 r9819"
   sodipodi:docname="rail-18.svg">
  <defs
     id="defs4621" />
  <sodipodi:namedview
     id="base"
     pagecolor="#ffffff"
     bordercolor="#666666"
     borderopacity="1.0"
     inkscape:pageopacity="0.0"
     inkscape:pageshadow="2"
     inkscape:zoom="44.2"
     inkscape:cx="9.5"
     inkscape:cy="9.5"
     inkscape:document-units="px"
     inkscape:current-layer="layer1"
     showgrid="true"
     showguides="true"
     inkscape:guide-bbox="true"
     inkscape:window-width="1119"
     inkscape:window-height="881"
     inkscape:window-x="218"
     inkscape:window-y="79"
     inkscape:window-maximized="0">
    <inkscape:grid
       type="xygrid"
       id="grid4627"
       empspacing="2"
       visible="true"
       enabled="true"
       snapvisiblegridlinesonly="true"
       color="#ff00ff"
       opacity="0.1254902"
       empcolor="#ff00ff"
       empopacity="0.25098039" />
    <sodipodi:guide
       orientation="0,1"
       position="7,18"
       id="guide4659" />
    <sodipodi:guide
       orientation="1,0"
       position="18,9"
       id="guide4661" />
    <sodipodi:guide
       orientation="0,1"
       position="16,17"
       id="guide4663" />
    <sodipodi:guide
       orientation="1,0"
       position="17,14"
       id="guide4665" />
    <sodipodi:guide
       orientation="1,0"
       position="0,16"
       id="guide4667" />
    <sodipodi:guide
       orientation="0,1"
       position="8,0"
       id="guide4669" />
    <sodipodi:guide
       orientation="1,0"
       position="2,10"
       id="guide4671" />
    <sodipodi:guide
       orientation="0,1"
       position="12,2"
       id="guide4673" />
    <sodipodi:guide
       orientation="0,1"
       position="12,16"
       id="guide3010" />
    <sodipodi:guide
       orientation="1,0"
       position="3,11.5"
       id="guide3012" />
    <sodipodi:guide
       orientation="1,0"
       position="16,8.5"
       id="guide3016" />
    <sodipodi:guide
       orientation="1,0"
       position="9.5,9"
       id="guide3804" />
    <sodipodi:guide
       orientation="0,1"
       position="13,3"
       id="guide3138" />
  </sodipodi:namedview>
  <metadata
     id="metadata4624">
    <rdf:RDF>
      <cc:Work
         rdf:about="">
        <dc:format>image/svg+xml</dc:format>
        <dc:type
           rdf:resource="http://purl.org/dc/dcmitype/StillImage" />
        <dc:title />
      </cc:Work>
    </rdf:RDF>
  </metadata>
  <g
     inkscape:label="Layer 1"
     inkscape:groupmode="layer"
     id="layer1"
     transform="translate(0,-1034.3622)">
    <path
       style="font-size:medium;font-style:normal;font-variant:normal;font-weight:normal;font-stretch:normal;text-indent:0;text-align:start;text-decoration:none;line-height:normal;letter-spacing:normal;word-spacing:normal;text-transform:none;direction:ltr;block-progression:tb;writing-mode:lr-tb;text-anchor:start;baseline-shift:baseline;color:#000000;fill:#ffffff;fill-opacity:1;stroke:none;stroke-width:2;marker:none;visibility:visible;display:inline;overflow:visible;enable-background:accumulate;font-family:Sans;-inkscape-font-specification:Sans;opacity:0.3"
       d="M 6.84375,1 C 6.6071625,1.025 6.3809879,1.1384 6.21875,1.3125 l -2.9375,3 C 3.1048751,4.4948 3.0019888,4.7463 3,5 c 0,2 0,4 0,6 0,0.754632 0.4330229,1.410119 1.0625,1.75 -0.026296,0.08975 -0.06416,0.155783 -0.0625,0.25 -0.5235845,5.2e-5 -0.9999476,0.476416 -1,1 l 0,1 c 5.24e-5,0.523584 0.4764155,0.999948 1,1 l 4,0 c 0.5235845,-5.2e-5 0.9999476,-0.476416 1,-1 l 0,-2 1,0 0,2 c 5.2e-5,0.523584 0.476416,0.999948 1,1 l 4,0 c 0.523584,-5.2e-5 0.999948,-0.476416 1,-1 l 0,-1 c -5.2e-5,-0.523584 -0.476416,-0.999948 -1,-1 -9e-6,-0.08726 -0.03802,-0.167346 -0.0625,-0.25 C 15.566977,12.410119 16,11.754632 16,11 16,9 16,7 16,5 15.998,4.7463 15.895125,4.4948 15.71875,4.3125 l -2.9375,-3 C 12.596695,1.1176 12.330935,1.002 12.0625,1 z M 7,6 12,6 12,7 7,7 z"
       transform="translate(0,1034.3622)"
       id="path3815"
       inkscape:connector-curvature="0"
       sodipodi:nodetypes="cccccccccccccccccccccccccccccccc" />
    <path
       style="fill:#444444;fill-opacity:1;stroke:none"
       d="M 6.9375 2 L 4 5 L 4 10.25 L 4 11 C 4 11.554 4.446 12 5 12 L 14 12 C 14.554 12 15 11.554 15 11 L 15 10.25 L 15 5 L 12.0625 2 L 6.9375 2 z M 8 3 L 11 3 L 11 4 L 8 4 L 8 3 z M 6 5 L 13 5 L 13 8 L 6 8 L 6 5 z M 6 9 L 7.5 9 L 7.5 10.5 L 6 10.5 L 6 9 z M 11.5 9 L 13 9 L 13 10.5 L 11.5 10.5 L 11.5 9 z "
       transform="translate(0,1034.3622)"
       id="rect3226" />
    <path
       style="fill:#444444;fill-opacity:1;stroke:none"
       d="m 8,1047.3622 -3,0 0,1 -1,0 0,1 4,0 z"
       id="path3787-5"
       inkscape:connector-curvature="0"
       sodipodi:nodetypes="ccccccc" />
    <path
       sodipodi:nodetypes="ccccccc"
       inkscape:connector-curvature="0"
       id="path3122"
       d="m 11,1047.3622 3,0 0,1 1,0 0,1 -4,0 z"
       style="fill:#444444;fill-opacity:1;stroke:none" />
  </g>
</svg>

<svg xmlns="http://www.w3.org/2000/svg" viewBox="0 0 18 18"><g transform="translate(0-1034.36)"><g transform="translate(0 1034.36)"><path d="m6.844 1c-.237.025-.463.138-.625.313l-2.938 3c-.176.182-.279.434-.281.688 0 2 0 4 0 6 0 .755.433 1.41 1.063 1.75-.026.09-.064.156-.063.25-.524 0-1 .476-1 1v1c0 .524.476 1 1 1h4c.524 0 1-.476 1-1v-2h1v2c0 .524.476 1 1 1h4c.524 0 1-.476 1-1v-1c0-.524-.476-1-1-1 0-.087-.038-.167-.063-.25.629-.34 1.063-.995 1.063-1.75 0-2 0-4 0-6-.002-.254-.105-.505-.281-.688l-2.938-3c-.185-.195-.45-.31-.719-.313zm.156 5h5v1h-5z" opacity=".3" color="#000" fill="#fff"/><path d="m6.938 2l-2.938 3v5.25.75c0 .554.446 1 1 1h9c.554 0 1-.446 1-1v-.75-5.25l-2.938-3h-5.125m1.063 1h3v1h-3v-1m-2 2h7v3h-7v-3m0 4h1.5v1.5h-1.5v-1.5m5.5 0h1.5v1.5h-1.5v-1.5" fill="#444"/></g><g fill="#444"><path d="m8 1047.36h-3v1h-1v1h4z"/><path d="m11 1047.36h3v1h1v1h-4z"/></g></g></svg>
